!!!COM: Corelli, Arcangelo
!!!OTL: 
!!!ONM: Opus 4, No. 3
!!!OMV: 2
!!!CDT: 1653/2/17/-1713/1/8/
!!!OCY: Italia
**kern	**kern	**kern	**kern
*clefC	*clefC	*clefG	*clefG
*k[f#c#]	*k[f#c#]	*k[f#c#]	*k[f#c#]
*D:	*D:	*D:	*D:
*M3/4	*M3/4	*M3/4	*M3/4
2r	2r	2r	2r
8r	8r	8r	8r
8AA	8AA	8cc#	8ee
=1	=1	=1	=1
2AA	2AA	2cc#	4.ee
.	.	.	8a
4A	4A	4a	8cc#
.	.	.	8a
=2	=2	=2	=2
4G#	4G#	4ee	8b
.	.	.	8a
4E	4E	4g#	8b
.	.	.	8cc#
4G#	4G#	4b	8dd
.	.	.	8b
=3	=3	=3	=3
4A	4A	2e	8cc#
.	.	.	8a
4AA	4AA	.	8cc#
.	.	.	8b
4A	4A	4cc#	8cc#
.	.	.	8dd#
=4	=4	=4	=4
2G#	2G#	2b	8ee
.	.	.	8b
.	.	.	8ee
.	.	.	8ff#
4G#	4G#	[4ee	8gg#
.	.	.	8ee
=5	=5	=5	=5
4F#	4F#	4ee]	8aa
.	.	.	8gg#
4B	4B	2dd#	8ff#
.	.	.	8gg#
4BB	4BB	.	8aa
.	.	.	8ff#
=6	=6	=6	=6
4E	4E	2ee	8gg#
.	.	.	8b
[2e	[2e	.	8cc#
.	.	.	8dd
.	.	4g#	8ee
.	.	.	8e
=7	=7	=7	=7
4e]	4e]	4a	8f#
.	.	.	8a
[2d	[2d	4f#	8b
.	.	.	8cc#
.	.	4b	8dd
.	.	.	8f#
=8	=8	=8	=8
4d]	4d]	2e	8g#
.	.	.	8ee
4c#	4c#	.	8ff#
.	.	.	8gg#
4C#	4C#	4ee	8aa
.	.	.	8ee
=9	=9	=9	=9
4D	4D	2a	8ff#
.	.	.	8a
4F#	4F#	.	8dd
.	.	.	8ff#
4D	4D	4ff#	8bb
.	.	.	8ff#
=10	=10	=10	=10
4E	4E	2b	8gg#
.	.	.	8ee
4D	4D	.	8ff#
.	.	.	8gg#
4C#	4C#	4ee	8aa
.	.	.	8cc#
=11	=11	=11	=11
4D	4D	4a	8ff#
.	.	.	8b
4E	4E	4.a	2b
4EE	4EE	.	.
.	.	8g#	.
=12	=12	=12	=12
2AA	2AA	2a	8a
.	.	.	8e
.	.	.	8a
.	.	.	8cc#
4A	4A	4cc#	8ee
.	.	.	8cc#
=13	=13	=13	=13
4G#	4G#	4ee	8b
.	.	.	8e
4E	4E	4b	8g#
.	.	.	8b
4G#	4G#	4g#	8ee
.	.	.	8b
=14	=14	=14	=14
4A	4A	2e	8cc#
.	.	.	8a
4AA	4AA	.	8cc#
.	.	.	8ee
4A	4A	4cc#	8aa
.	.	.	8cc#
=15	=15	=15	=15
4B	4B	4f#	8dd#
.	.	.	8b
4BB	4BB	4ff#	8dd#
.	.	.	8ff#
4B	4B	4dd#	8bb
.	.	.	8ff#
=16	=16	=16	=16
2E	2E	2.ee	8gg#
.	.	.	8ee
.	.	.	8gg#
.	.	.	8bb
4E	4E	.	8gg#
.	.	.	8bb
=17	=17	=17	=17
4D#	4D#	4r	8ff#
.	.	.	8bb
4D#	4D#	4b	8ff#
.	.	.	8bb
4G#	4G#	4b	8ff#
.	.	.	8bb
=18	=18	=18	=18
2C#	2C#	4b	8ee
.	.	.	8aa
.	.	2a	8ee
.	.	.	8aa
4F#	4F#	.	8ee
.	.	.	8aa
=19	=19	=19	=19
4BB	4BB	4r	8dd#
.	.	.	8gg#
4BB	4BB	4g#	8dd#
.	.	.	8gg#
4E	4E	4g#	8dd#
.	.	.	8gg#
=20	=20	=20	=20
2AA	2AA	4g#	8cc#
.	.	.	8ff#
.	.	4f#	8cc#
.	.	.	8ff#
4AA	4AA	4ff#	8cc#
.	.	.	8ff#
=21	=21	=21	=21
2AA	2AA	2b	8dd#
.	.	.	8b
.	.	.	8cc#
.	.	.	8dd#
4GG#	4GG#	4b	4ee
=22	=22	=22	=22
4AA	4AA	4e	4cc#
2BB	2BB	4.e	4.f#
.	.	8d#	8b
=23	=23	=23	=23
2EE	2EE	2e	2g#
8r	8r	8r	8r
8E	8E	8g#	8b
=24	=24	=24	=24
2E	2E	2g#	4.b
.	.	.	8cc#
4E	4E	4g#	8b
.	.	.	8cc#
=25	=25	=25	=25
4F#	4F#	4a	8dd
.	.	.	8cc#
4F#	4F#	4a	8dd
.	.	.	8ee
4G#	4G#	4b	8b
.	.	.	8dd
=26	=26	=26	=26
4A	4A	2e	8cc#
.	.	.	8a
4AA	4AA	.	8cc#
.	.	.	8ee
4A	4A	4cc#	8aa
.	.	.	8bb
=27	=27	=27	=27
4B	4B	2dd	8gg#
.	.	.	8ff#
4BB	4BB	.	8gg#
.	.	.	8aa
4B	4B	4dd	8ff#
.	.	.	8gg#
=28	=28	=28	=28
4c#	4c#	4g#	8ee#
.	.	.	8cc#
4A	4A	4cc#	8ff#
.	.	.	8gg#
4F#	4F#	[4ff#	8aa
.	.	.	8gg#
=29	=29	=29	=29
4BB	4BB	4ff#]	8aa
.	.	.	8bb
4.C#	4.C#	4.ff#	2gg#
8CC#	8CC#	8ee#	.
=30	=30	=30	=30
2FF#	2FF#	2.ff#	8ff#
.	.	.	8f#
.	.	.	8a
.	.	.	8cc#
4r	4r	.	8ff#
.	.	.	8cc#
=31	=31	=31	=31
4F#	4F#	2cc#	8a#
.	.	.	8f#
4FF#	4FF#	.	8a#
.	.	.	8cc#
4AA#	4AA#	4cc#	8ff#
.	.	.	8cc#
=32	=32	=32	=32
2BB	2BB	2.f#	8dd#
.	.	.	8b
.	.	.	8dd#
.	.	.	8ff#
4r	4r	.	8bb
.	.	.	8ff#
=33	=33	=33	=33
4B	4B	2ff#	8dd#
.	.	.	8b
4BB	4BB	.	8dd#
.	.	.	8ff#
4D#	4D#	4ff#	8bb
.	.	.	8ff#
=34	=34	=34	=34
2E	2E	2.b	8gg#
.	.	.	8e
.	.	.	8g#
.	.	.	8b
4r	4r	.	8ee
.	.	.	8b
=35	=35	=35	=35
4e	4e	2b	8g#
.	.	.	8e
4E	4E	.	8g#
.	.	.	8b
4G#	4G#	4b	8ee
.	.	.	8b
=36	=36	=36	=36
2A	2A	2.e	8cc#
.	.	.	8a
.	.	.	8cc#
.	.	.	8ee
4r	4r	.	8aa
.	.	.	8ee
=37	=37	=37	=37
4A	4A	2ee	8cc#
.	.	.	8a
4AA	4AA	.	8cc#
.	.	.	8ee
4C#	4C#	4ee	8aa
.	.	.	8ee
=38	=38	=38	=38
2D	2D	2a	8ff#
.	.	.	8d
.	.	.	8f#
.	.	.	8a
4r	4r	4ff#	8dd
.	.	.	8f#
=39	=39	=39	=39
4E	4E	4b	8g#
.	.	.	8e
4EE	4EE	4ee	8g#
.	.	.	8cc#
4r	4r	4gg#	8b
.	.	.	8cc#
=40	=40	=40	=40
4F#	4F#	4cc#	8a
.	.	.	8f#
4FF#	4FF#	4ff#	8a
.	.	.	8dd
4r	4r	4aa	8cc#
.	.	.	8dd
=41	=41	=41	=41
4G#	4G#	4r	8b
.	.	.	8g#
4GG#	4GG#	4gg#	8b
.	.	.	8ee
4r	4r	4bb	8dd
.	.	.	8ee
=42	=42	=42	=42
4A	4A	4ee	8cc#
.	.	.	8a
4AA	4AA	4a	8cc#
.	.	.	8ff#
4r	4r	4cc#	8ee
.	.	.	8ff#
=43	=43	=43	=43
4B	4B	4f#	8dd
.	.	.	8b
4BB	4BB	4b	8dd
.	.	.	8gg#
4r	4r	4dd	8ff#
.	.	.	8gg#
=44	=44	=44	=44
4c#	4c#	4r	8ee
.	.	.	8cc#
4C#	4C#	4cc#	8ee
.	.	.	8aa
4r	4r	4ee	8gg#
.	.	.	8aa
=45	=45	=45	=45
4d	4d	4a	8ff#
.	.	.	8dd
[2D	[2D	4dd	8ff#
.	.	.	8bb
.	.	4ff#	8aa
.	.	.	8bb
=46	=46	=46	=46
2D]	2D]	2b	8gg#
.	.	.	8ee
.	.	.	8ff#
.	.	.	8gg#
4C#	4C#	4ee	8aa
.	.	.	8cc#
=47	=47	=47	=47
4D	4D	4a	8ff#
.	.	.	8b
4E	4E	4.a	2b
4EE	4EE	.	.
.	.	8g#	.
=48	=48	=48	=48
2AA	2AA	2a	2a
8r	8r	8r	8r
8r	8r	8r	8r
==	==	==	==
*-	*-	*-	*-
!!!RWG: This file only contains pitch and duration data.
!!!RWG: Transposing instruments are not transposed.
!!!RWG: Durations of rests and tied notes may be interpreted.
!!!RWG: Key is interpreted using the Humdrum key tool.
!!!SCA: 
!!!YOR: Chrysander Edition
!!!AGN: chamber
!!!AFT: stage1
!!!ENC: F. Bennion
!!!END: 1997/04/15
!!!AST: baroque
!!!YEC: Copyright 1994, Center for Computer Assisted Research in the Humanities
!!!YEM: Rights to all derivative electronic formats reserved.
!!!YEM: Refer to licensing agreement for further details.
!!!YEN: United States of America
!!!EED: W.B. Hewlett
!!!KEY: 3760976362
!!!EMD: Converted from MuseData to Humdrum Aug 9, 1999, by Bret Aarden using muse2kern.
!!!VTS: 2994144401
